X: 330
T:White Rose () Waltz
M:3/4
L:1/8
Z:posted by Tony Ludiker 2/01
K:A
CB,|"A" A,2 C3 A,|"E7" B,2 D3 B,|"A" C2 E3 C|"D" D2 F3 F|
"A" E2 A3 A|A2 B2 c2|"E7" B6|B4 CB,|
"A" A,2 C3 A,|"E7" B,2 D3 B,|"A" C2 E3 C|"D" D2 F3 F|
"A" E2 A3 A|"E7" G2 c2 B2|"A" A6|A6||
"F" A6|"C7" =G3 A G2|"F" =F3 =G FD|=C4 A2|
"F" A6|"C7" =G3 A G2|"F" =F3 =G F2|"E7" E4 CB,|
"A" A,2 C3 A,|"E7" B,2 D3 B,|"A" C2 E3 C|"D" D2 F3 F|
"A" E2 A3 A|"E7" G2 c2 B2|"A" A6|A4||
